X:143
T:La Fete De Village. WM.143
M:C
L:1/16
Q:1/4=100
S:Wm.Mittell’s MS, New Romney,Kent,1799
R:.Country Dance
O:England
A:Kent
N:Missing from photocopy, reinserted from Dave Roberts Book, may be wrong
N:number
Z:vmp.Chris Partington
K:D
a4gfef g2f2e4|f2d2c2d2 edcBA4|a4f2ef g2f2e4|!
f2a2 dgecd4d4:|\
|:FAdA GBdG FAdA GBdB|d2a2g2f2 edefe4|!
FAdA GBdG FAdA GBdG|d2f2e2a2d4d4:|

